X:1
T:Title
%%score { ( 1 3 ) | ( 2 4 ) }
L:1/8
Q:1/4=100
M:2/4
K:E
V:1 treble nm="Grand Piano"
V:3 treble 
V:2 bass 
V:4 bass 
V:1
 G2 G2 | G2 G2 | F2 z2 | [B,EG]4 | [A,CA]2 [C^EG]2 | [CFA]2 .[CFc]2 | [B,EG]2 .[G,EG]2 | [B,DF]4 | %8
w: W.~A.~Mozart *||||||||
 [B,EG]2 [B,EG]2 | [B,EG]2 [B,EG]2 | F2 z2 | [B,EG]4 | [A,CA]2 [C^EG]2 | [CFA]2 .[CFc]2 | %14
w: ||||||
 [B,EG]2 [A,DF]2 | [G,E]4 |] %16
w: ||
V:2
 [E,B,E]2 [E,B,E]2 | [E,B,E]2 [E,B,E]2 | D,2 B,,D, | E,4 | F,2 C,2 | F,2 z A | B,,2 z A, | B,,4 | %8
 E,2 E,2 | E,2 E,2 | D,2 B,,D, | E,4 | F,2 C,2 | F,2 z A | B,,2 B,,2 | E,4 |] %16
V:3
 x4 | x4 | [B,B]2- [B,DB][B,FA] | x4 | x4 | x4 | x4 | x4 | x4 | x4 | [B,B]2- [B,DB][B,FA] | x4 | %12
 x4 | x4 | x4 | x4 |] %16
V:4
 x4 | x4 | x4 | x4 | x4 | z2 A,,2 | z2 B,,2 | x4 | x4 | x4 | x4 | x4 | x4 | z2 A,,2 | x4 | x4 |] %16

